X: 32647
T: Plonker, The
R: jig
M: 6/8
K: Dmajor
D2D DED|EFF F2A|Bdd Add|Bee fed|
D2D DED|EFF F2A|BdB BAF|E3 D3:|
fdf ecA|dcB AFD|fdf ecA|Bgf e3|
fdf ecA|dcB AFD|BdB BAF|E3 D3:|

